X: 2099
T: Atholl Arms
R: jig
M: 6/8
K: Amixolydian
e>AA c>AA|d>cd B>cd|e>AA c>AA|e>fg a>gf|
e>AA c>AA|d>cd B>GB|G>GG B>GB|d>Bd f>dd:|
e>fg a>AA|A>AA c>AA|e>fg a>AA|A>AA B>GG|
e>fg a>AA|A>AA c>AA|G>GG B>GB|d>Bd f>dd:|

